X: 1
T: April Storm
C: Terry Wergeland
B: Portland Collection v.2 p.15
R: jig
Z: 2016 John Chambers <jc:trillian.mit.edu>
M: 6/8
L: 1/8
K: Ddor
|:\
"Dm"d2d- dAc | d2d- dcd | "C"efe dcA GCE Gce |\
"Dm"d2d- dAc | d2d cde | "Bb"fed cAG | "C"ECE "Dm"D3 :|
|:\
"Dm"D2D EDC | DEG A2B | "C"c2c GAc | AcA GEC |\
"Dm"D2D EDC | DEG Ade | "Bb"fed cAG | "C"ECE "Dm"D3 :|
